svgs/sharp-solid/lightbulb-cfl.svg

<svg xmlns="http://www.w3.org/2000/svg" viewBox="0 0 320 512"><!--! Font Awesome Pro 6.6.0 by @fontawesome - https://fontawesome.com License - https://fontawesome.com/license (Commercial License) Copyright 2024 Fonticons, Inc. --><path d="M160 64l-25.2 5L0 96 0 32 122.5 7.5 160 0l0 38.3L160 64zm160 0l0 64L0 192l0-64L320 64zM0 288l0-64 320-64 0 64L0 288zM64 480l0-96 32 0 0-82.6 48-9.6 0 92.2 32 0 0-35.2 0-28.8 0-35.2L320 256l0 64-96 19.2 0 44.8 32 0 0 96-64 0 0 32-64 0 0-32-64 0z"/></svg>

<svg xmlns="http://www.w3.org/2000/svg" viewBox="0 0 320 512"><!--! Font Awesome Pro 6.5.2 by @fontawesome - https://fontawesome.com License - https://fontawesome.com/license (Commercial License) Copyright 2024 Fonticons, Inc. --><path d="M160 64l-25.2 5L0 96V32L122.5 7.5 160 0V38.3 64zm160 0v64L0 192V128L320 64zM0 288V224l320-64v64L0 288zM64 480V384H96V301.4l48-9.6V384h32V348.8 320 284.8L320 256v64l-96 19.2V384h32v96H192v32H128V480H64z"/></svg>
